X:1
T: Abercairney House
C:Niel Gow
R:Strathspey
Q:128
K:Bb
M:4/4
L:1/16
|:Bc|dG3 B3G d2G2 Bg3|cF3 A3F c2F2 A2f2|dG3 B3G d2G2 Bg3|f3d c2BA G4 G2Bc|
dG3 B3G d2G2 Bg3|cF3 A3F c2F2 A2f2|dG3 B3G d2G2 Bg3|f3d c2BA G4 G2d2|
g3d g2b2 ga3 fg3|f2a2 d2f2 c3F c2BA|g3d g2b2 ga3 fg3|f3c c2BA G4 G2d2|
g3d g2b2 ga3 fg3|f2a2 d2f2 c3F c2BA|dG3 B3G d2G2 Bg3|f3d c2BA G4 G2:|
